T: Cameron Highlander, The
M: 4/4
L: 1/8
K: Amaj
ec | A2 ce A2 ce | f2 ec e2 ga | A2 ce Aece | dBBA Beec |
A2 ce Aecd | eAfA gA a2 | faea caBd | c2 A2 A2 :|
(3aaa) | faea caBd | cA (3AAA A2 (3aaa | faea caBd | cBBA B2 (3aaa |
faea caBd | cAce a3 e | faea caBd | c2 A2 A2 :|
